!!!!SEGMENT: pl-wn--mus-2041-8_zelenski-wladyslaw--skonaj-ty-serce.krn
!!!cenid: 18xx:3646
!!!COM: Żeleński, Władysław
!!!COM-rismID: pe41024455
!!!CDT: 1837/07/06-1921/01/23
!!!CNT: Polish
!!!OTL: Skonaj ty serce
!!!PDT:
!!!AGN:
!!!SMS-siglum: PL-Wn
!!!SMS-shelfmark: Mus.2041/8
!!!SMS-shelfwork: W
!!!SMS-variant:
!!!SMS-altvar:
!!!NIFC-rismSourceID:
!!!NIFC-rismChildID:
!!!NIFC-islandoraID:
!!!URL-pdf-islandora:
!!!URL-scan: https://polona.pl/item/skonaj-ty-serce,NjYwMzI3NDc/3 @EN{Scan on Polona} @PL{Skany w portalu Polona}
!!!ONB-nifc:
!!!AIN: 1 piano 1 vox
!!!key: E-
**kern	**kern	**dynam	**kern	**text	**dynam
*part2	*part2	*part2	*part1	*part1	*part1
*staff3	*staff2	*	*staff1	*staff1	*
*I"Fortepian	*I"Fortepian	*	*I"Śpiew	*	*
*I'pf	*I'pf	*	*I'V	*	*
*ICklav	*ICklav	*	*ICvox	*	*
*Ipiano	*Ipiano	*	*Ivox	*	*
*clefF4	*clefG2	*	*clefG2	*	*
*k[b-e-a-]	*k[b-e-a-]	*	*k[b-e-a-]	*	*
*E-:	*E-:	*	*E-:	*	*
*M4/4	*M4/4	*	*M4/4	*	*
*met(c)	*met(c)	*	*met(c)	*	*
=1	=1	=1	=1	=1	=1
*^	*	*	*	*	*
*xywh-#1:136,2987,5917,1041	*xywh-#1:136,2987,5917,1041	*xywh-#1:136,2987,5917,1041	*	*xywh-#1:123,987,5766,1931	*	*
!	!	!	!	!LO:TX:a:B:t=Andante non troppo lento.	!	!
4rc	1C	8r	.	1r	.	.
.	.	4e-/ 4g	.	.	.	.
(4c/	.	.	.	.	.	.
.	.	4e-/ 4g	.	.	.	.
4G/	.	.	.	.	.	.
.	.	4e-/ 4g	.	.	.	.
[4B-/)	.	.	.	.	.	.
.	.	[8d/ [8g	.	.	.	.
=2	=2	=2	=2	=2	=2	=2
4B-/]	1C	8d/] 8g]	.	1r	.	.
.	.	4d/ 4g	<	.	.	.
(4B-/	.	.	.	.	.	.
.	.	4d/ 4g	.	.	.	.
4A-/	.	.	.	.	.	.
.	.	4c/ 4g	.	.	.	.
[4D/)	.	.	.	.	.	.
.	.	[8c/ [8f	.	.	.	.
=3	=3	=3	=3	=3	=3	=3
*	*	*^	*	*	*	*
*	*	*	*xywh-#1:136,2987,5917,1041	*	*	*	*
4D/]	1GG	8c/] 8f]	3...ryy	[	1r	.	.
.	.	4c/ 4f	.	.	.	.	.
(4A-/	.	.	.	.	.	.	.
.	.	4c/ 4f	.	.	.	.	.
4.G/	.	.	.	.	.	.	.
.	.	(8f/L	4Bn\	>	.	.	.
.	.	8e-/)	.	.	.	.	.
8F/)	.	8d/J	8B\	]	.	.	.
*v	*v	*	*	*	*	*	*
*	*v	*v	*	*	*	*
!!LO:LB:g=original	!	!	!	!	!
=4	=4	=4	=4	=4	=4
*xywh-#1:467,4741,5714,1109	*xywh-#1:467,4741,5714,1109	*	*xywh-#1:551,4049,5337,723	*	*
(8qCC/	.	.	.	.	.
(4.E-\)	8r	.	1r	.	.
.	4G/ 4c 4g	.	.	.	.
8D\	4G/ 4c 4f	.	.	.	.
[2C\)	.	.	.	.	.
.	4G/ 4c 4e-	.	.	.	.
.	[8G/ [8c [8e-	.	.	.	.
=5	=5	=5	=5	=5	=5
!	!	!	!LO:TX:a:i:t=espress.	!	!
4C/]	8G/] 8c] 8e-]	.	4cc\	Sko-	.
.	4c/ 4e-	.	.	.	.
(4C\	.	.	8.b-\	-naj	.
.	4c/ 4e-	.	.	.	.
.	.	.	16a-\	ty	.
[2CC/)	.	.	4a-/	ser-	.
.	4B-/ 4d	.	.	.	.
.	.	.	8g/	-ce	.
.	[8B-/ [8d	.	8g/	wprzód	.
=6	=6	=6	=6	=6	=6
4CC/]	8B-/] 8d]	.	4g/	nim	.
.	4A-/ 4c	.	.	.	.
(4C/	.	.	8.f/	by	.
.	4A-/ 4c	.	.	.	.
.	.	.	16g/	cię	.
[2CC/)	.	.	4b-\	mia-	.
.	4G/ 4c	.	.	.	.
.	.	.	4a-\	-no	.
.	[8F/ [8c	.	.	.	.
!!LO:LB:g=original	!	!	!	!	!
=7	=7	=7	=7	=7	=7
*xywh-#1:224,6479,5754,1420	*xywh-#1:224,6479,5754,1420	*	*xywh-#1:629,5704,5295,786	*	*
4CC/]	8F/] 8c]	.	4g/	Zdep-	.
.	4D/ 4F 4c	.	.	.	.
(4C/	.	.	8.d/	-tać	.
.	4F/ 4G 4Bn	.	.	.	.
.	.	.	16f/	szy-	.
[2CC/)	.	.	4e-/	-der-	.
.	4E-/ 4G 4e-	.	.	.	.
.	.	.	8f/	-czo	.
.	[8E-/ [8G [8c	.	8g/	lub	.
=8	=8	=8	=8	=8	=8
!	!	!LO:DY:a	!	!	!LO:DY:a
4CC/]	8E-/] 8G] 8c]	<	4an/	kar-	<
.	4E-/ 4G 4c	.	.	.	.
(4C/	.	.	8bn\	-mić	.
.	4E-/ 4G 4An	.	8cc\	jał-	.
[2GG/)	.	[[	4dd\	-muż-	.
.	4D/ 4G 4Bn	.	.	.	.
.	.	.	4g/	-ną!	[
.	((8F/ [8G 8B	.	.	.	.
=9	=9	=9	=9	=9	=9
!	!	!	!LO:TX:a:i:t=con gran duolo	!	!
4GG/]	8E-/)) 8G] 8c	.	4ee-\	Nie	.
.	4c/ 4e-	.	.	.	.
(4CC/	.	.	8.dd\	patrz	.
.	4c/ 4e-	.	.	.	.
.	.	.	16cc\	już	.
[2C/)	.	.	4b-\	w przesz-	.
.	4c/ 4e-	.	.	.	.
.	.	.	8a-X\	-łość,	.
.	[8c/ [8e-	.	8a-\	u-	.
!!LO:LB:g=original
!!LO:PB:g=original	!	!	!	!
=10	=10	=10	=10	=10	=10
*xywh-#2:610,1261,5298,1084	*xywh-#2:610,1261,5298,1084	*	*xywh-#2:553,393,5535,948	*	*
4C/]	8c/] 8e-]	.	4cc\	-mar-	.
.	4c/ 4e-	.	.	.	.
4CC/	.	.	8.b-\	-li	.
.	4c/ 4e-	.	.	.	.
.	.	.	16a-/	nie	.
[2EE-/	.	.	4a-/	wsta-	.
.	4B-/ 4e-	.	.	.	.
.	.	.	8g/	-ną,	.
.	[8B-/ [8e-	.	8g/	I	.
=11	=11	=11	=11	=11	=11
4EE-/]	8B-/] 8e-]	.	4.g/	nie	.
.	4B-/ 4e- 4g	.	.	.	.
!	!	!LO:DY:a	!	!	!
(4DD-X/	.	<	.	.	.
.	8B-/ [8e- [8g	.	8g/	patrz	.
!	!	!	!	!	!LO:DY:a
4CC/	8An/ 8e-] 8g]	.	8an/	w przysz-	<
.	4A/ 4e- 4g	.	8a/	-łość	.
4C/	.	.	8bn/	po	.
.	[8A/ [8e- [8g	.	8cc\	cóż	[[
=12	=12	=12	=12	=12	=12
!	!	!	!	!	!LO:DY:a
.	.	.	(8qcc/	.	<
4D\)	8A/] 8e-] 8g]	.	[2.ee-\)	cze-	.
.	4An/ 4c 4g	.	.	.	.
(4DD/	.	.	.	.	.
.	4A/ 4c 4g	.	.	.	.
2D\)	.	[[	.	.	.
.	4A/ 4c 4g	.	.	.	.
.	.	.	8.ee-\]	.	[
.	[8A/ [8c [8f#X	.	.	.	.
.	.	.	16f#X/	-kać	.
!!LO:LB:g=original	!	!	!	!	!
=13	=13	=13	=13	=13	=13
*^	*	*	*	*	*
*xywh-#2:413,3022,5535,1070	*xywh-#2:413,3022,5535,1070	*xywh-#2:413,3022,5535,1070	*	*xywh-#2:540,2276,5508,745	*	*
!	!	!	!	!	!	!LO:DY:a
2rc	[1GG	8A/] 8c] 8f#]	.	4f#X/	próż-	>
.	.	4An/ 4c 4f#X	.	.	.	.
.	.	.	.	[4g/	-no	.
.	.	4G/ 4Bn 4g	.	.	.	.
!	!	!	!LO:DY:a	!	!	!
4rc	.	.	>	8g/]	.	]
.	.	4B/ 4g	.	8r	.	.
[4A-/	.	.	]	4r	.	.
.	.	[8c/ [8g	.	.	.	.
=14	=14	=14	=14	=14	=14	=14
*	*	*^	*	*	*	*
*	*	*	*xywh-#2:413,3022,5535,1070	*	*	*	*
4A-/]	2GG\]	8c/] 8g]	8ryy	.	2r	.	.
.	.	4c/ 4g	8ryy	.	.	.	.
(4D/	.	.	4ryy	.	.	.	.
.	.	4c/ 4f	.	.	.	.	.
4G/	8GG\	.	8ryy	.	4r	.	.
.	4ryy	(8f/L	4Bn\	.	.	.	.
!	!	!	!	!	!LO:TX:a:i:t=poco piú dolce	!	!
4F/	.	8e-/)	.	.	4g/	W cio-	.
.	8ryy	8d/J	8B\	.	.	.	.
*v	*v	*	*	*	*	*	*
*	*v	*v	*	*	*	*
=15	=15	=15	=15	=15	=15
8E-\)	16B-X/LL 16d-X	.	4.g/	-sa-	.
.	16E-/	.	.	.	.
8r	16e-/	.	.	.	.
.	16E-/JJ	.	.	.	.
[4EE-^/	16e-/LL	.	.	.	.
.	16E-/	.	.	.	.
.	16e-/	.	8a-/	-ną	.
.	16E-/JJ	.	.	.	.
8EE-/L]	16e-/LL	.	8b-\	z ma-	.
.	16E-/	.	.	.	.
(8FF/	16e-/	.	8b-\	-rzeń	.
.	16E-/JJ	.	.	.	.
8GG/	16e-/LL	.	8b-\	i	.
.	16E-/	.	.	.	.
8AA-/J	16e-/	.	8cc\	tęs-	.
.	16E-/JJ	.	.	.	.
!!LO:LB:g=original	!	!	!	!	!
=16	=16	=16	=16	=16	=16
*xywh-#2:576,4755,5325,928	*xywh-#2:576,4755,5325,928	*	*xywh-#2:492,4052,5386,738	*	*
4BB-/)	16e-/LL	.	4.dd-X\	-kno-	.
.	16E-/	.	.	.	.
.	16e-/	.	.	.	.
.	16E-/JJ	.	.	.	.
(4AA-/	16B-/LL	.	.	.	.
.	16F-X/	.	.	.	.
.	16B-/	.	8f-X/	-ty	.
.	16F-/JJ	.	.	.	.
4GG/	16B-/LL	.	4f-/	trum-	.
.	16F-/	.	.	.	.
.	16B-/	.	.	.	.
.	16F-/JJ	.	.	.	.
[4D-X\	16B-/LL	.	[4e-/	-nę	.
.	16E-/	.	.	.	.
.	16B-/	.	.	.	.
.	16E-/JJ	.	.	.	.
=17	=17	=17	=17	=17	=17
4D-\]	16e-/LL	.	8e-/]	.	.
.	16E-/	.	.	.	.
.	16e-/	.	8e-/	Wło-	.
.	16E-/JJ	.	.	.	.
[4C/)	16e-/LL	.	8e-/	-żo-	.
.	16E-/	.	.	.	.
.	16e-/	.	8f/	-ne	.
.	16E-/JJ	.	.	.	.
8C/L]	16e-/LL	.	4g-X/	za-	.
.	16E-/	.	.	.	.
8AA-/	16e-/	.	.	.	.
.	16E-/JJ	.	.	.	.
8BB-/	16A-/LL 16e-	.	8g-/	-śnij	.
.	16G-X/	.	.	.	.
8C/J	16A-/ 16e-	.	8a-/	i	.
.	16G-/JJ	.	.	.	.
!!LO:LB:g=original	!	!	!	!	!
=18	=18	=18	=18	=18	=18
*xywh-#2:515,6450,5474,1084	*xywh-#2:515,6450,5474,1084	*	*xywh-#2:621,5712,5298,833	*	*
4D-X\	16B-/LL 16d-X	.	2.b-\	śpij	.
.	16G-X/	.	.	.	.
.	16B-/ 16d-	.	.	.	.
.	16G-/JJ	.	.	.	.
(2DD-X/	16B-/LL 16d-	.	.	.	.
.	16G-/	.	.	.	.
.	16B-/ 16d-	.	.	.	.
.	16G-/JJ	.	.	.	.
.	16c-X/LL 16e-	.	.	.	.
.	16G-/	.	.	.	.
.	16c-/ 16e-	.	.	.	.
.	16G-/JJ	.	.	.	.
[4D-\)	16d-/LL 16f	.	8.f/	nie-	.
.	16c-/	.	.	.	.
.	16dn/ 16f	.	.	.	.
.	16c-/JJ	.	16a-/	-prze-	.
=19	=19	=19	=19	=19	=19
4D-\]	16d-X/LL 16f	.	4a-/	-spa-	.
.	16c-X/	.	.	.	.
.	16d-/ 16f	.	.	.	.
.	16c-/JJ	.	.	.	.
[4GG-X/	16d-/LL 16g-X	.	4g-X/	-nie,	.
.	16B-/	.	.	.	.
.	16d-/ 16g-	.	.	.	.
.	[16B-/JJ	.	.	.	.
8GG-/]	8B-/] 8d- 8g-	.	4r	.	.
4D-X\	8r	.	.	.	.
.	4r	.	4d-X/	Na	.
[8D-\	.	.	.	.	.
=20	=20	=20	=20	=20	=20
*^	*^	*	*	*	*
*xywh-#2:515,6450,5474,1084	*xywh-#2:515,6450,5474,1084	*xywh-#2:515,6450,5474,1084	*xywh-#2:515,6450,5474,1084	*	*	*	*
!	!	!	!	!	!	!	!LO:DY:a
8D-/]	2GG-X\	4ryy	4ryy	.	(4b-\	ból	<
!	!	!	!	!LO:DY:a	!	!	!
4D-X/	.	.	.	<	.	.	.
.	.	([4d-X/	4B-\	.	8.a-/)	.	.
4D-/	.	.	.	.	.	.	.
.	.	.	.	.	16g-X/	za	.
.	2AA-\	2d-/])	2c\	.	4g-/	mar-	.
4D-/	.	.	.	.	.	.	.
.	.	.	.	.	8f/	-twe,	.
[8D-/	.	.	.	[	8f/	na	.
!!LO:LB:g=original	!	!	!	!	!	!	!
!!LO:PB:g=original	!	!	!	!	!	!	!
=21	=21	=21	=21	=21	=21	=21	=21
*xywh-#3:503,1195,5454,1180	*xywh-#3:503,1195,5454,1180	*xywh-#3:503,1195,5454,1180	*xywh-#3:503,1195,5454,1180	*	*xywh-#3:434,496,5420,814	*	*
!	!	!	!	!LO:DY:a	!	!	!
8D-/]	1BB-	4ryy	4ryy	<	4dd-X\	skar-	.
4D-X/	.	.	.	.	.	.	.
.	.	(4G-X/ 4d-X 4g-X	2.d-\	.	8.cc\	-gę	.
4D-/	.	.	.	[	.	.	.
.	.	.	.	.	16b-\	za	.
.	.	4F/ 4f	.	.	4a-/	dum-	.
4D-/	.	.	.	.	.	.	.
.	.	4En/) 4e-	.	.	4g/	-ne	[
8D-/	.	.	.	.	.	.	.
*v	*v	*	*	*	*	*	*
*	*v	*v	*	*	*	*
=22	=22	=22	=22	=22	=22
*ped	*	*	*	*	*
16r	[4c/ [4en [4gn [4cc	.	4r	.	.
(16.AA-/LL	.	.	.	.	.
(32C/k	.	.	.	.	.
[16En/JJ	.	.	.	.	.
[2.AA-\)) [2.C 2.E_ [2.G	16c/LL] 16e] 16g] 16cc]	.	[2cc\	Śpij!	.
.	(16c/	.	.	.	.
.	16e/	.	.	.	.
.	16g/JJ	.	.	.	.
.	16cc\LL	.	.	.	.
.	16ccc\	.	.	.	.
.	16gg\	.	.	.	.
.	16een\JJ	.	.	.	.
.	16cc/LL	.	8cc\]	.	.
.	16cc/	.	.	.	.
.	16g/	.	8r	.	.
.	16e/JJ	.	.	.	.
=23	=23	=23	=23	=23	=23
*	*^	*	*	*	*
*	*	*xywh-#3:503,1195,5454,1180	*	*	*	*
*Xped	*	*	*	*	*	*
8AA-\] 8C] 8E] 8G]	8c/)	8ryy	.	2r	.	.
8r	8rb	8ryy	.	.	.	.
*	*clefF4	*	*	*	*	*
4r	[2.C^\ [2.c	4ryy	.	.	.	.
8CC/L	.	4rc	.	4r	.	.
8AA-/	.	.	.	.	.	.
8GG/	.	8B-/L	.	8b-\	słoń-	.
8FF/J	.	8A-/J	.	8a-/	-ce	.
*	*v	*v	*	*	*	*
!LO:LB:g=original	!	!	!	!	!
=24	=24	=24	=24	=24	=24
*xywh-#3:537,2884,5461,1227	*xywh-#3:537,2884,5461,1227	*	*xywh-#3:557,2267,5210,786	*	*
(8EE-/L	4C\] 4G 4c]	.	4g/	za-	.
8FF/J	.	.	.	.	.
*	*clefG2	*	*	*	*
2GG/)	16r	.	8g/	-szło	.
.	(>16G/LL	<	.	.	.
.	16c/	.	8g/	i	.
.	16e-/JJ	.	.	.	.
!	!	!	!	!	!LO:DY:a
.	16g/LL	.	4g/	wię-	<
.	16G/	.	.	.	.
.	16c/	.	.	.	.
.	16e-/JJ	.	.	.	.
!	!	!LO:DY:a	!	!	!
[4GG/	16f/LL	.	8d/	-cej	.
.	16G/	.	.	.	.
.	16Bn/	.	8f/	nie	[[
.	16d/JJ	[[	.	.	.
=25	=25	=25	=25	=25	=25
*^	*	*	*	*	*
*	*xywh-#3:537,2884,5461,1227	*	*	*	*	*
4GG/]	4ryy	16en/LL	.	4en/	wsta-	.
.	.	16c/	.	.	.	.
.	.	16G/	.	.	.	.
.	.	16En/JJ	.	.	.	.
(2CC/	(2.CC\	16C/LL	.	[2g/	-nie	>
.	.	16E/	>	.	.	.
.	.	16G/	.	.	.	.
.	.	16c/JJ	.	.	.	.
.	.	16e/LL	.	.	.	.
.	.	16g/	.	.	.	.
.	.	16cc/	.	.	.	.
.	.	16g/JJ	.	.	.	.
!	!	!	!LO:DY:a	!	!	!LO:DY:a
8GG/L	.	16e/LL	.	8g/]	.	.
.	.	16g/	.	.	.	.
8AA-/J	.	16e/	.	8r	.	]
.	.	16c/JJ	]]	.	.	.
*v	*v	*	*	*	*	*
!LO:LB:g=original	!	!	!	!	!
=26	=26	=26	=26	=26	=26
*xywh-#3:415,4654,5529,1282	*xywh-#3:415,4654,5529,1282	*	*xywh-#3:550,3997,5285,800	*	*
!	!	!LO:DY:a	!	!	!
*ped	*	*	*	*	*
16CC/LL)) 16BB-	8G/)	pp	4r	.	.
(<16.BB-/	.	.	.	.	.
.	8r	.	.	.	.
(<32D-X/k	.	.	.	.	.
[16En/JJ	.	.	.	.	.
!	!LO:TX:t=P:problem=brak kropek przy 2	!	!LO:TX:a:i:t=dolce	!	!
[2.BB-\)) [2.D- 2.E_ [2.G	16r	.	[2dd-X\	Śpij!	.
.	(16d-X/LL	.	.	.	.
.	16en/	.	.	.	.
.	16g/JJ	.	.	.	.
.	16b-\LL	.	.	.	.
.	16bb-\	.	.	.	.
.	16gg\	.	.	.	.
.	16een\JJ	.	.	.	.
.	16dd-X\LL	.	8dd-\]	.	.
.	16b-\	.	.	.	.
.	16g\	.	8r	.	.
.	16e\JJ	.	.	.	.
=27	=27	=27	=27	=27	=27
*Xped	*	*	*	*	*
8BB-\] 8D-] 8E] 8G]	8d-X/)	.	1r	.	.
8r	8r	.	.	.	.
*	*clefF4	*	*	*	*
!	!	!LO:DY:a	!	!	!
8r	2D-X^\ 2d-	<	.	.	.
(8BB-/	.	.	.	.	.
8AA-/L	.	.	.	.	.
8GG/	.	.	.	.	.
8FF/	[4D-\ [4G [4d-	.	.	.	.
8EEn/J	.	.	.	.	.
=28	=28	=28	=28	=28	=28
*	*^	*	*	*	*
*	*	*xywh-#3:415,4654,5529,1282	*	*	*	*
2.AA-/)	((4D-\] 4G_ 4d-]	2.ryy	.	4r	.	.
!	!	!	!	!	!	!LO:DY:a
.	8C\L)) 8G] 8c	.	.	2cc\	słoń-	<
.	8C\J	.	.	.	.	.
.	8F/L	.	.	.	.	.
.	8c/	.	.	.	.	.
*	*clefG2	*	*	*	*	*
(4GG/	8dn/	4B-\	[	4b-\	-ce	[[
.	8en/J	.	.	.	.	.
=29	=29	=29	=29	=29	=29	=29
4FF/)	8f/L	4A-\ 4c	.	4a-/	za-	.
.	8a-/J	.	.	.	.	.
!	!	!	!	!	!	!LO:DY:a
8r	(>2c/ 2e- 2g	2.ryy	p	2g/	-szło	>
(8CC/	.	.	.	.	.	.
8GG/L	.	.	.	.	.	.
8C/	.	.	.	.	.	.
8D-X/	4A-/ 4d-X 4f	.	.	4f/	i	]
8F/J	.	.	.	.	.	.
!LO:LB:g=original	!	!	!	!	!	!
=30	=30	=30	=30	=30	=30	=30
*xywh-#3:259,6439,5658,1485	*xywh-#3:259,6439,5658,1485	*xywh-#3:259,6439,5658,1485	*	*xywh-#3:475,5809,5352,746	*	*
!	!	!	!	!LO:TX:a:i:t=poco espress.	!	!
8A->/ 8c>/L)	4e-/)	8r<	.	4e-/	wię-	.
8E-\J	.	8ryy	.	.	.	.
!	!LO:TX:t=P:problem=powinna być półnuta zamiast całej nuty	!	!	!	!	!
!	!LO:N:vis=1	!	!	!	!	!
8r	[2D/ [2F [2B- [2d-X	4ryy	.	2d-X/	-cej	.
([8BBB-/	.	.	.	.	.	.
8BBB-/]	.	2rc	.	.	.	.
4FF/	.	.	.	.	.	.
.	8D/] 8F] 8B-] 8d-]	.	.	4d-/	nie	.
8BB-/)	8rb	.	.	.	.	.L
*	*v	*v	*	*	*	*
=31	=31	=31	=31	=31	=31
*ped	*	*	*	*	*
[16DD-X/LL	8F/L 8A- 8f	.	[2.f/	wsta-	.
!LO:N:vis=16.	!	!	!	!	!
[16AA-/J	.	.	.	.	.
[8D-X/J	16r	.	.	.	.
.	16F/Jk	.	.	.	.
[4DD-/] [4AA-] 4D-_	(16A-/LL	.	.	.	.
.	16d-X/	.	.	.	.
.	16f/	.	.	.	.
.	16a-/JJ	.	.	.	.
*Xped	*	*	*	*	*
8DD-/] 8AA-] 8D-]	8gg\)	.	.	.	.
8r	8r	.	.	.	.
4GGG/ 4GG	((4F/ [4G 4Bn	p	8f/L]	.	.
.	.	.	8en/J	.	.
=32	=32	=32	=32	=32	=32
*^	*	*	*	*	*
*	*xywh-#3:259,6439,5658,1485	*	*	*	*	*
*ped	*	*	*	*	*	*
*Xtuplet	*	*Xtuplet	*	*	*	*
12CC/L 12GG	4ryy	4En/)) 4G] 4c	.	[2c/	-nie.	.
!	!	!LO:TX:t=P:problem=6A- w drugim głosie	!	!	!	!
[12CC/	.	.	.	.	.	.
[12GG/J	.	.	.	.	.	.
4ryy	((4CC\] 4GG]	12En<\L	.	.	.	.
.	.	12G/	.	.	.	.
!	!	!	!LO:HP:t=dim.	!	!	!
.	.	12c/J	>	.	.	.
2E-/]	2CC\)) 2GG	12en/L	.	8c/]	.	.
.	.	12g/	.	.	.	.
.	.	.	.	8r	.	.
.	.	12an/J	.	.	.	.
.	.	12cc\L	.	4r	.	.
.	.	12een\	.	.	.	.
.	.	12gg\J	.	.	.	.
=33	=33	=33	=33	=33	=33	=33
8E-/	8CC\ 8GG	8ccc\	.	1r;	.	.
*v	*v	*	*	*	*	*
8rc	8r	.	.	.	.
2.C;<\ 2.G	2.c;/ 2.en 2.g 2.cc	ppp	.	.	.
*Xped	*	*	*	*	*
==	==	==	==	==	==
*-	*-	*-	*-	*-	*-
!!!system-decoration: [(s1)]{(s2,s3)}
!!!RDF**kern: > = above
!!!RDF**kern: < = below
!!!ENC: Arkadiusz Malec
!!!END: 2022-02-19
!!!ENC: Natalia Wrzos
!!!END: 2022-02-21
!!!ENC-iiif: Antoni Szymański
!!!END-iiif: 2022-09-04
!!!YEC: Copyright 2022 Narodowy Instytut Fryderyka Chopina (https://polishscores.org)
!!!YEM: License CC-BY-4.0 (https://creativecommons.org/licenses/by/4.0)
!!!IIIF: https://polona.pl/iiif/item/NjYwMzI3NDc/manifest.json
